64x64/apps/kubeplayer.svg

<svg height="64" width="64" xmlns="http://www.w3.org/2000/svg"><path d="m8.602 8a4.593 4.593 0 0 0 -4.602 4.602v31.398h56v-31.398a4.593 4.593 0 0 0 -4.602-4.602z" fill="#e85228"/><path d="m8.602 8c-2.549 0-4.602 2.014-4.602 4.513v.987c0-2.499 2.053-4.513 4.602-4.513h46.796c2.548 0 4.602 2.014 4.602 4.513v-.987c0-2.499-2.054-4.513-4.602-4.513z" fill="#f4f4f7" opacity=".2"/><path d="m8.602 56a4.582 4.582 0 0 1 -4.602-4.58v-7.42h56v7.42a4.583 4.583 0 0 1 -4.602 4.58z" fill="#ccc"/><rect fill="#999" height="4" ry="2" width="16" x="40" y="48"/><rect fill="#e85228" height="4" ry="2" width="32" x="8" y="48"/><circle cx="40" cy="51" opacity=".2" r="4"/><circle cx="40" cy="50" fill="#f4f4f7" r="4"/><path d="m4 44h56v2h-56z" fill="#f4f4f7" opacity=".2"/><path d="m24.867 17a.878.878 0 0 0 -.867.89v18.22c0 .675.706 1.104 1.283.78l16.267-9.11c.6-.338.6-1.223 0-1.56l-14.642-8.2-1.626-.91a.847.847 0 0 0 -.416-.11z" opacity=".2"/><path d="m24.867 16a.878.878 0 0 0 -.867.89v18.22c0 .675.706 1.104 1.283.78l16.267-9.11c.6-.338.6-1.223 0-1.56l-14.642-8.198-1.626-.91a.847.847 0 0 0 -.416-.11z" fill="#f4f4f7"/><path d="m4 51.4v1c0 2.548 2.053 4.6 4.602 4.6h46.796a4.592 4.592 0 0 0 4.602-4.6v-1c0 2.548-2.054 4.6-4.602 4.6h-46.796a4.592 4.592 0 0 1 -4.602-4.6z" opacity=".2"/></svg>

<svg height="64" width="64" xmlns="http://www.w3.org/2000/svg">
    <path d="M8.602 8A4.593 4.593 0 0 0 4 12.602V44h56V12.602A4.593 4.593 0 0 0 55.398 8z" fill="#e85228"/>
    <path d="M8.602 8C6.053 8 4 10.014 4 12.513v.987c0-2.499 2.053-4.513 4.602-4.513h46.796C57.946 8.987 60 11.001 60 13.5v-.987C60 10.014 57.946 8 55.398 8z" fill="#f4f4f7" opacity=".2"/>
    <path d="M8.602 56A4.582 4.582 0 0 1 4 51.42V44h56v7.42A4.583 4.583 0 0 1 55.398 56z" fill="#ccc"/>
    <rect fill="#999" height="4" ry="2" width="16" x="40" y="48"/>
    <rect fill="#e85228" height="4" ry="2" width="32" x="8" y="48"/>
    <circle cx="40" cy="51" opacity=".2" r="4"/>
    <circle cx="40" cy="50" fill="#f4f4f7" r="4"/>
    <path d="M4 44h56v2H4z" fill="#f4f4f7" opacity=".2"/>
    <path d="M24.867 17a.878.878 0 0 0-.867.89v18.22c0 .675.706 1.104 1.283.78l16.267-9.11c.6-.338.6-1.223 0-1.56l-14.642-8.2-1.626-.91a.847.847 0 0 0-.416-.11z" opacity=".2"/>
    <path d="M24.867 16a.878.878 0 0 0-.867.89v18.22c0 .675.706 1.104 1.283.78l16.267-9.11c.6-.338.6-1.223 0-1.56l-14.642-8.198-1.626-.91a.847.847 0 0 0-.416-.11z" fill="#f4f4f7"/>
    <path d="M4 51.4v1C4 54.948 6.053 57 8.602 57h46.796A4.592 4.592 0 0 0 60 52.4v-1c0 2.548-2.054 4.6-4.602 4.6H8.602A4.592 4.592 0 0 1 4 51.4z" opacity=".2"/>
</svg>
